static/assets/template/assets/img/icons/essential/detailed/Vitamins.svg

<svg height="141" viewBox="0 0 148 141" width="148" xmlns="http://www.w3.org/2000/svg"><g fill="none" fill-rule="evenodd" transform="translate(1 2)"><g stroke-linecap="round" stroke-linejoin="round" stroke-width="3" transform="translate(0 136)"><path d="m2 .8h-1.4"/><path d="m41.9.8h-34.3"/><path d="m49.3.8h-1.4"/><path d="m138.6.8h-81.8"/><path d="m145.2.8h-2.1"/></g><path d="m94.8 137.3h-41.4c-12.4 0-22.4-10-22.4-22.4v-49.3c0-12.4 10-22.4 22.4-22.4h41.4c12.4 0 22.4 10 22.4 22.4v49.3c0 12.4-10.1 22.4-22.4 22.4z" fill-rule="nonzero"/><path d="m117.2 69.9v47c0 11.3-9.2 20.5-20.5 20.5h-36.5c-8.8 0-16.2-5.5-19.2-13.2-.9-2.3-1.3-4.7-1.3-7.3v-47c0-11.3 9.2-20.5 20.5-20.5h36.5c7.7 0 14.3 4.2 17.8 10.4 1.7 3 2.7 6.4 2.7 10.1z" fill-rule="nonzero"/><path d="m117.2 69.9v48.7c0 10.4-8.4 18.8-18.8 18.8h-38.2c-5.1 0-9.7-1.8-13.2-4.8-3.4-2.9-1.4-8.4 3.1-8.4h45.7c10.4 0 18.8-8.4 18.8-18.8v-45.5c1.6 2.9 2.6 6.3 2.6 10z" fill="#bad8ff" fill-rule="nonzero"/><path d="m50.9 29.7h45.7v13.5h-45.7v-6.1" fill-rule="nonzero" stroke-linecap="round" stroke-linejoin="round" stroke-width="3"/><path d="m42.3 46c3.2-1.8 7-2.9 11-2.9h41.4c12.4 0 22.4 10 22.4 22.4v49.3c0 12.4-10 22.4-22.4 22.4h-41.4c-12.4 0-22.4-10-22.4-22.4v-49.3c0-5.1 1.7-9.8 4.6-13.6" stroke-linecap="round" stroke-linejoin="round" stroke-width="3"/><path d="m102.1.2h-57.7c-3.8 0-6.9 3.1-6.9 6.9v15.6c0 3.8 3.1 6.9 6.9 6.9h57.7c3.8 0 6.9-3.1 6.9-6.9v-15.6c0-3.8-3.1-6.9-6.9-6.9z" fill-rule="nonzero"/><path d="m103.2 6.8h-52.3c-3.2 0-5.8 2.6-5.8 5.8v11.2c0 3.2 2.6 5.8 5.8 5.8h52.3c3.2 0 5.8-2.6 5.8-5.8v-11.2c0-3.2-2.6-5.8-5.8-5.8z" fill-rule="nonzero"/><g stroke-width="3"><path d="m57 .2h-.6" stroke-linecap="round" stroke-linejoin="round"/><path d="m46.6.2h-2.2c-3.8 0-6.9 3.1-6.9 6.9v15.6c0 3.8 3.1 6.9 6.9 6.9h57.7c3.8 0 6.9-3.1 6.9-6.9v-15.6c0-3.8-3.1-6.9-6.9-6.9h-35.4" stroke-linecap="round" stroke-linejoin="round"/><path d="m69.2 18.6h-1.9" stroke-linecap="round" stroke-linejoin="round"/><path d="m106.9 18.6h-24.8" stroke-linecap="round" stroke-linejoin="round"/><g transform="translate(56 61)"><path d="m13.7 56.7 23.3-32c.7-1 0-2.3-1.2-2.3l-12.1.2 3.2-20.5c.2-1.5-1.7-2.3-2.5-1l-23.3 32c-.7 1 0 2.3 1.2 2.3l11.9-.1-3 20.3c-.2 1.5 1.7 2.3 2.5 1.1z" fill-rule="nonzero"/><g stroke-linecap="round" stroke-linejoin="round"><path d="m11.6 18.5-.3.5"/><path d="m23.2 25.7 3.6-23.6c.2-1.5-1.7-2.3-2.5-1l-7.1 9.8"/><path d="m7.2 24.5-6.2 8.5c-.7 1 0 2.3 1.2 2.3l11.9-.1-3 20.3c-.2 1.5 1.7 2.2 2.5 1l23.3-32c.7-1 0-2.3-1.2-2.3l-6.2.1"/></g></g></g></g></svg>

<?xml version="1.0" encoding="UTF-8"?>
<svg width="148px" height="141px" viewBox="0 0 148 141" version="1.1" xmlns="http://www.w3.org/2000/svg" xmlns:xlink="http://www.w3.org/1999/xlink">
    <!-- Generator: Sketch 51.2 (57519) - http://www.bohemiancoding.com/sketch -->
    <title>Vitamins</title>
    <desc>Created with Sketch.</desc>
    <defs></defs>
    <g id="Page-1" stroke="none" stroke-width="1" fill="none" fill-rule="evenodd">
        <g id="Vitamins" transform="translate(1.000000, 2.000000)">
            <g id="Group" transform="translate(0.000000, 136.000000)" class="stroke-primary-300" stroke-linecap="round" stroke-linejoin="round" stroke-width="3">
                <path d="M2,0.8 L0.6,0.8" id="Shape"></path>
                <path d="M41.9,0.8 L7.6,0.8" id="Shape"></path>
                <path d="M49.3,0.8 L47.9,0.8" id="Shape"></path>
                <path d="M138.6,0.8 L56.8,0.8" id="Shape"></path>
                <path d="M145.2,0.8 L143.1,0.8" id="Shape"></path>
            </g>
            <path d="M94.8,137.3 L53.4,137.3 C41,137.3 31,127.3 31,114.9 L31,65.6 C31,53.2 41,43.2 53.4,43.2 L94.8,43.2 C107.2,43.2 117.2,53.2 117.2,65.6 L117.2,114.9 C117.2,127.3 107.1,137.3 94.8,137.3 Z" id="Shape" class="fill-neutral" fill-rule="nonzero"></path>
            <path d="M117.2,69.9 L117.2,116.9 C117.2,128.2 108,137.4 96.7,137.4 L60.2,137.4 C51.4,137.4 44,131.9 41,124.2 C40.1,121.9 39.7,119.5 39.7,116.9 L39.7,69.9 C39.7,58.6 48.9,49.4 60.2,49.4 L96.7,49.4 C104.4,49.4 111,53.6 114.5,59.8 C116.2,62.8 117.2,66.2 117.2,69.9 Z" id="Shape" class="fill-primary-100" fill-rule="nonzero"></path>
            <path d="M117.2,69.9 L117.2,118.6 C117.2,129 108.8,137.4 98.4,137.4 L60.2,137.4 C55.1,137.4 50.5,135.6 47,132.6 C43.6,129.7 45.6,124.2 50.1,124.2 L95.8,124.2 C106.2,124.2 114.6,115.8 114.6,105.4 L114.6,59.9 C116.2,62.8 117.2,66.2 117.2,69.9 Z" id="Shape" fill="#BAD8FF" fill-rule="nonzero"></path>
            <polyline id="Shape" stroke-width="3" class="stroke-primary fill-primary-400" fill-rule="nonzero" stroke-linecap="round" stroke-linejoin="round" points="50.9 29.7 50.9 29.7 96.6 29.7 96.6 43.2 50.9 43.2 50.9 37.1"></polyline>
            <path d="M42.3,46 C45.5,44.2 49.3,43.1 53.3,43.1 L94.7,43.1 C107.1,43.1 117.1,53.1 117.1,65.5 L117.1,114.8 C117.1,127.2 107.1,137.2 94.7,137.2 L53.3,137.2 C40.9,137.2 30.9,127.2 30.9,114.8 L30.9,65.5 C30.9,60.4 32.6,55.7 35.5,51.9" id="Shape" class="stroke-primary" stroke-width="3" stroke-linecap="round" stroke-linejoin="round"></path>
            <path d="M102.1,0.2 L44.4,0.2 C40.6,0.2 37.5,3.3 37.5,7.1 L37.5,22.7 C37.5,26.5 40.6,29.6 44.4,29.6 L102.1,29.6 C105.9,29.6 109,26.5 109,22.7 L109,7.1 C109,3.3 105.9,0.2 102.1,0.2 Z" id="Shape" class="fill-neutral" fill-rule="nonzero"></path>
            <path d="M103.2,6.8 L50.9,6.8 C47.7,6.8 45.1,9.4 45.1,12.6 L45.1,23.8 C45.1,27 47.7,29.6 50.9,29.6 L103.2,29.6 C106.4,29.6 109,27 109,23.8 L109,12.6 C109,9.4 106.4,6.8 103.2,6.8 Z" id="Shape" class="fill-primary-400" fill-rule="nonzero"></path>
            <path d="M57,0.2 L56.4,0.2" id="Shape" class="stroke-primary" stroke-width="3" stroke-linecap="round" stroke-linejoin="round"></path>
            <path d="M46.6,0.2 L44.4,0.2 C40.6,0.2 37.5,3.3 37.5,7.1 L37.5,22.7 C37.5,26.5 40.6,29.6 44.4,29.6 L102.1,29.6 C105.9,29.6 109,26.5 109,22.7 L109,7.1 C109,3.3 105.9,0.2 102.1,0.2 L66.7,0.2" id="Shape" class="stroke-primary" stroke-width="3" stroke-linecap="round" stroke-linejoin="round"></path>
            <path d="M69.2,18.6 L67.3,18.6" id="Shape" class="stroke-primary" stroke-width="3" stroke-linecap="round" stroke-linejoin="round"></path>
            <path d="M106.9,18.6 L82.1,18.6" id="Shape" class="stroke-primary" stroke-width="3" stroke-linecap="round" stroke-linejoin="round"></path>
            <g id="Group" transform="translate(56.000000, 61.000000)" stroke-width="3">
                <path d="M13.7,56.7 L37,24.7 C37.7,23.7 37,22.4 35.8,22.4 L23.7,22.6 L26.9,2.1 C27.1,0.6 25.2,-0.2 24.4,1.1 L1.1,33.1 C0.4,34.1 1.1,35.4 2.3,35.4 L14.2,35.3 L11.2,55.6 C11,57.1 12.9,57.9 13.7,56.7 Z" id="Shape" class="stroke-primary-400" class="fill-primary-400" fill-rule="nonzero"></path>
                <path d="M11.6,18.5 L11.3,19" id="Shape" class="stroke-primary" stroke-linecap="round" stroke-linejoin="round"></path>
                <path d="M23.2,25.7 L26.8,2.1 C27,0.6 25.1,-0.2 24.3,1.1 L17.2,10.9" id="Shape" class="stroke-primary" stroke-linecap="round" stroke-linejoin="round"></path>
                <path d="M7.2,24.5 L1,33 C0.3,34 1,35.3 2.2,35.3 L14.1,35.2 L11.1,55.5 C10.9,57 12.8,57.7 13.6,56.5 L36.9,24.5 C37.6,23.5 36.9,22.2 35.7,22.2 L29.5,22.3" id="Shape" class="stroke-primary" stroke-linecap="round" stroke-linejoin="round"></path>
            </g>
        </g>
    </g>
</svg>
